X: 2
P: Fisher's Rant
N: J.Hardy
R: strathspey
B: Athole Collection
N: Kerr's 2nd p.15,
Z: 1997 by John Chambers <jc:trillian.mit.edu>
M: C
L: 1/8
K: G
[| "G"G>D C/B,/A,/G,/ B,<D D>G | "Am"E>A, F>A, "D7"G>A, F>A, | "G"G>D C/B,/A,/G,/ B,<D D>G | "Am"(3EFG ABc "D7"(3BAG (3FED ||
| "G"G>D C/B,/A,/G,/ B,<D D>G | "Am"E>A, F>A, "D7"G>A, F>A, | "G"G>D C/B,/A,/G,/ B,<D D>G | "C"E>A "D7"G/F/E/D/ "G"G3B/c/ |]
[| "G"d>B A<G g>d B<G |  "C"(3cec "G"(3BdB "Am"A>B "D7"c<e | "G"d>B A<G g>d B<G | "C"(3ced "D7"cBA "G"(3GDC (3B,A,G, ||
|| "G"d>B A<G g>d B<G |  "C"(3cec "G"(3BdB "Am"A>B "D7"c<e | "G"(3dcB (3AGF "Em"(3GFE (3DCB, |  "C"(3CDE "D7"(3DEF "G"G4 |]
